X:1
T:The Farfar Sodger
L:1/8
M:4/4
I:linebreak $
K:D
V:1 treble 
V:1
 A | F>F F>A E>E E>E | F>F F>A B2 BA | F>F F>F E>E E>E | F>G A>F D2 DA |$ B>c d>e d>c B>A | %6
 B>c d>e c2 AA | B>c d>e d>c B3/2 z/ | F>E F>A B2 B2 | %9
